assets/img/braze_icons/crop-01.svg

<svg fill="none" height="24" viewBox="0 0 24 24" width="24" xmlns="http://www.w3.org/2000/svg"><path clip-rule="evenodd" d="m7 2c0-.55228-.44771-1-1-1-.55228 0-1 .44772-1 1v3h-3c-.55228 0-1 .44772-1 1 0 .55229.44772 1 1 1h3v7.8385c-.00002.5272-.00003.982.03057 1.3565.0323.3954.10362.7886.29641 1.167.28762.5645.74656 1.0234 1.31105 1.311.37838.1928.7716.2641 1.16694.2964.37457.0306.82933.0306 1.35647.0306h7.83856v3c0 .5523.4477 1 1 1s1-.4477 1-1v-3h3c.5523 0 1-.4477 1-1s-.4477-1-1-1h-3v-7.83856c0-.52714 0-.9819-.0306-1.35647-.0323-.39534-.1036-.78856-.2964-1.16694-.2876-.56449-.7465-1.02343-1.311-1.31105-.3784-.19279-.7716-.26411-1.167-.29641-.3745-.0306-.8293-.03059-1.3565-.03057h-7.8385zm0 5v7.8c0 .5766.00078.9488.02393 1.2322.02219.2716.05987.3723.08507.4218.09587.1882.24885.3411.43701.437.04945.0252.15016.0629.42183.0851.28333.0231.65561.0239 1.23216.0239h7.8v-7.8c0-.57655-.0008-.94883-.0239-1.23216-.0222-.27167-.0599-.37238-.0851-.42183-.0959-.18816-.2488-.34114-.437-.43701-.0495-.0252-.1502-.06288-.4218-.08507-.2834-.02315-.6556-.02393-1.2322-.02393z" fill="#801ed7" fill-rule="evenodd"/></svg>

<svg width="24" height="24" viewBox="0 0 24 24" fill="none" xmlns="http://www.w3.org/2000/svg">
<path fill-rule="evenodd" clip-rule="evenodd" d="M7 2C7 1.44772 6.55229 1 6 1C5.44772 1 5 1.44772 5 2V5H2C1.44772 5 1 5.44772 1 6C1 6.55229 1.44772 7 2 7H5L5 14.8385C4.99998 15.3657 4.99997 15.8205 5.03057 16.195C5.06287 16.5904 5.13419 16.9836 5.32698 17.362C5.6146 17.9265 6.07354 18.3854 6.63803 18.673C7.01641 18.8658 7.40963 18.9371 7.80497 18.9694C8.17954 19 8.6343 19 9.16144 19L17 19V22C17 22.5523 17.4477 23 18 23C18.5523 23 19 22.5523 19 22V19H22C22.5523 19 23 18.5523 23 18C23 17.4477 22.5523 17 22 17H19V9.16144C19 8.6343 19 8.17954 18.9694 7.80497C18.9371 7.40963 18.8658 7.01641 18.673 6.63803C18.3854 6.07354 17.9265 5.6146 17.362 5.32698C16.9836 5.13419 16.5904 5.06287 16.195 5.03057C15.8205 4.99997 15.3657 4.99998 14.8385 5L7 5L7 2ZM7 7L7 14.8C7 15.3766 7.00078 15.7488 7.02393 16.0322C7.04612 16.3038 7.0838 16.4045 7.109 16.454C7.20487 16.6422 7.35785 16.7951 7.54601 16.891C7.59546 16.9162 7.69617 16.9539 7.96784 16.9761C8.25117 16.9992 8.62345 17 9.2 17L17 17V9.2C17 8.62345 16.9992 8.25117 16.9761 7.96784C16.9539 7.69617 16.9162 7.59546 16.891 7.54601C16.7951 7.35785 16.6422 7.20487 16.454 7.109C16.4045 7.0838 16.3038 7.04612 16.0322 7.02393C15.7488 7.00078 15.3766 7 14.8 7H7Z" fill="#801ED7"/>
</svg>
